X:5
T:Branle des lavandires
O:Bretagne
Z:Transcrit et/ou corrig par Michel BELLON - 2007-04-23
Z:Pour toute observation mailto:galouvielle@free.fr
M:6/8
K:C
G |: c2B c2d | e3 e2e | g2e d2e |1 d3 c2G :|2 d3c2z ||
ggg e2g | f2e d3 | ggg e2g | f2e d3 |: [P:Intro]gge c3 | cBc d2d | d2e g2e |d3 c3 :|
%%begintext
